public/img/assets/icons/clear-day2.svg

<svg width="24" height="25" viewBox="0 0 24 25" fill="none" xmlns="http://www.w3.org/2000/svg">
<path d="M12.0001 2.21436C12.1706 2.21436 12.3341 2.28208 12.4546 2.40264C12.5752 2.5232 12.6429 2.68672 12.6429 2.85721V4.1395C12.6429 4.30999 12.5752 4.47351 12.4546 4.59407C12.3341 4.71463 12.1706 4.78236 12.0001 4.78236C11.8296 4.78236 11.6661 4.71463 11.5455 4.59407C11.4249 4.47351 11.3572 4.30999 11.3572 4.1395V2.85721C11.3572 2.68672 11.4249 2.5232 11.5455 2.40264C11.6661 2.28208 11.8296 2.21436 12.0001 2.21436ZM17.1429 12.5001C17.1429 13.1754 17.0099 13.8442 16.7515 14.4682C16.493 15.0921 16.1142 15.6591 15.6366 16.1366C15.1591 16.6142 14.5921 16.993 13.9682 17.2515C13.3442 17.5099 12.6754 17.6429 12.0001 17.6429C11.3247 17.6429 10.6559 17.5099 10.032 17.2515C9.40802 16.993 8.84108 16.6142 8.36352 16.1366C7.88596 15.6591 7.50714 15.0921 7.24869 14.4682C6.99024 13.8442 6.85721 13.1754 6.85721 12.5001C6.85721 11.1361 7.39905 9.82799 8.36352 8.86352C9.32799 7.89905 10.6361 7.35721 12.0001 7.35721C13.364 7.35721 14.6721 7.89905 15.6366 8.86352C16.6011 9.82799 17.1429 11.1361 17.1429 12.5001ZM21.6429 13.1429C21.8134 13.1429 21.9769 13.0752 22.0975 12.9546C22.2181 12.8341 22.2858 12.6706 22.2858 12.5001C22.2858 12.3296 22.2181 12.1661 22.0975 12.0455C21.9769 11.9249 21.8134 11.8572 21.6429 11.8572H20.3598C20.1893 11.8572 20.0258 11.9249 19.9052 12.0455C19.7847 12.1661 19.7169 12.3296 19.7169 12.5001C19.7169 12.6706 19.7847 12.8341 19.9052 12.9546C20.0258 13.0752 20.1893 13.1429 20.3598 13.1429H21.6421H21.6429ZM12.0001 20.2178C12.1706 20.2178 12.3341 20.2855 12.4546 20.4061C12.5752 20.5266 12.6429 20.6901 12.6429 20.8606V22.1429C12.6429 22.3134 12.5752 22.4769 12.4546 22.5975C12.3341 22.7181 12.1706 22.7858 12.0001 22.7858C11.8296 22.7858 11.6661 22.7181 11.5455 22.5975C11.4249 22.4769 11.3572 22.3134 11.3572 22.1429V20.8606C11.3572 20.6901 11.4249 20.5266 11.5455 20.4061C11.6661 20.2855 11.8296 20.2178 12.0001 20.2178ZM3.64293 13.1429C3.81342 13.1429 3.97694 13.0752 4.0975 12.9546C4.21805 12.8341 4.28578 12.6706 4.28578 12.5001C4.28578 12.3296 4.21805 12.1661 4.0975 12.0455C3.97694 11.9249 3.81342 11.8572 3.64293 11.8572H2.35721C2.18672 11.8572 2.0232 11.9249 1.90264 12.0455C1.78208 12.1661 1.71436 12.3296 1.71436 12.5001C1.71436 12.6706 1.78208 12.8341 1.90264 12.9546C2.0232 13.0752 2.18672 13.1429 2.35721 13.1429H3.64293ZM4.4735 4.9735C4.59403 4.85311 4.75743 4.78549 4.92778 4.78549C5.09814 4.78549 5.26153 4.85311 5.38207 4.9735L6.66778 6.25921C6.78134 6.38108 6.84316 6.54226 6.84022 6.7088C6.83728 6.87535 6.76981 7.03425 6.65203 7.15203C6.53425 7.26981 6.37535 7.33728 6.2088 7.34022C6.04226 7.34316 5.88108 7.28134 5.75921 7.16778L4.4735 5.88207C4.35311 5.76153 4.28549 5.59814 4.28549 5.42778C4.28549 5.25743 4.35311 5.09403 4.4735 4.9735ZM5.38207 20.0249C5.26021 20.1385 5.09902 20.2003 4.93248 20.1974C4.76594 20.1944 4.60703 20.127 4.48925 20.0092C4.37147 19.8914 4.304 19.7325 4.30106 19.5659C4.29812 19.3994 4.35994 19.2382 4.4735 19.1164L5.75921 17.8306C5.88108 17.7171 6.04226 17.6553 6.2088 17.6582C6.37535 17.6611 6.53425 17.7286 6.65203 17.8464C6.76981 17.9642 6.83728 18.1231 6.84022 18.2896C6.84316 18.4562 6.78134 18.6173 6.66778 18.7392L5.38207 20.0249ZM19.5249 4.9735C19.4044 4.85311 19.241 4.78549 19.0706 4.78549C18.9003 4.78549 18.7369 4.85311 18.6164 4.9735L17.3306 6.25921C17.2171 6.38108 17.1553 6.54226 17.1582 6.7088C17.1611 6.87535 17.2286 7.03425 17.3464 7.15203C17.4642 7.26981 17.6231 7.33728 17.7896 7.34022C17.9562 7.34316 18.1173 7.28134 18.2392 7.16778L19.5249 5.88207C19.6453 5.76153 19.7129 5.59814 19.7129 5.42778C19.7129 5.25743 19.6453 5.09403 19.5249 4.9735ZM18.6172 20.0258C18.6761 20.0889 18.747 20.1396 18.8259 20.1747C18.9048 20.2099 18.9899 20.2288 19.0762 20.2303C19.1625 20.2318 19.2482 20.2159 19.3283 20.1836C19.4083 20.1513 19.4811 20.1031 19.5421 20.0421C19.6031 19.9811 19.6513 19.9083 19.6836 19.8283C19.7159 19.7482 19.7318 19.6625 19.7303 19.5762C19.7288 19.4899 19.7099 19.4048 19.6747 19.3259C19.6396 19.247 19.5889 19.1761 19.5258 19.1172L18.2401 17.8315C18.1812 17.7683 18.1102 17.7177 18.0314 17.6825C17.9525 17.6474 17.8674 17.6285 17.7811 17.627C17.6948 17.6255 17.609 17.6413 17.529 17.6737C17.4489 17.706 17.3762 17.7541 17.3152 17.8152C17.2541 17.8762 17.206 17.9489 17.1737 18.029C17.1413 18.109 17.1255 18.1948 17.127 18.2811C17.1285 18.3674 17.1474 18.4525 17.1825 18.5314C17.2177 18.6102 17.2683 18.6812 17.3315 18.7401L18.6172 20.0258Z" fill="#FEB800"/>
</svg>

<svg xmlns="http://www.w3.org/2000/svg" fill="none" viewBox="0 0 24 25"><path d="M12 2.21a.64.64 0 0 1 .64.65v1.28a.64.64 0 1 1-1.28 0V2.86A.64.64 0 0 1 12 2.2Zm5.14 10.3a5.14 5.14 0 1 1-10.29 0 5.14 5.14 0 0 1 10.3 0Zm4.5.63a.64.64 0 1 0 0-1.28h-1.28a.64.64 0 1 0 0 1.28h1.28ZM12 20.22a.64.64 0 0 1 .64.64v1.28a.64.64 0 1 1-1.28 0v-1.28a.64.64 0 0 1 .64-.64Zm-8.36-7.08a.64.64 0 1 0 0-1.28H2.36a.64.64 0 1 0 0 1.28h1.28Zm.83-8.17a.64.64 0 0 1 .91 0l1.3 1.29a.64.64 0 0 1-.92.9L4.47 5.89a.64.64 0 0 1 0-.92Zm.91 15.05a.64.64 0 0 1-.9-.9l1.28-1.29a.64.64 0 0 1 .9.9l-1.28 1.3ZM19.52 4.97a.64.64 0 0 0-.9 0l-1.29 1.29a.64.64 0 0 0 .9.9l1.3-1.28a.64.64 0 0 0 0-.9Zm-.9 15.06a.64.64 0 1 0 .9-.91l-1.28-1.29a.64.64 0 0 0-1.06.7.8.8 0 0 0 .15.21l1.29 1.3Z" fill="#FEB800"/></svg>
